svg/u1f609.svg

<svg viewBox="0 0 128 128" xmlns="http://www.w3.org/2000/svg">
  <g id="gold">
    <radialGradient id="face_1_" cx="63.6" cy="808.9" gradientTransform="matrix(1 0 0 1 0 -746)" gradientUnits="userSpaceOnUse" r="56.9597">
      <stop offset="0.5" stop-color="#FDE030"/>
      <stop offset="0.92" stop-color="#F7C02B"/>
      <stop offset="1" stop-color="#F4A223"/>
    </radialGradient>
    <path id="face" d="M63.6,118.8c-27.9,0-58-17.5-58-55.9S35.7,7,63.6,7c15.5,0,29.8,5.1,40.4,14.4 c11.5,10.2,17.6,24.6,17.6,41.5s-6.1,31.2-17.6,41.4C93.4,113.6,79,118.8,63.6,118.8z" fill="url(#face_1_)"/>
    <path d="M111.49,29.67c5.33,8.6,8.11,18.84,8.11,30.23c0,16.9-6.1,31.2-17.6,41.4 c-10.6,9.3-25,14.5-40.4,14.5c-18.06,0-37-7.35-48.18-22.94c10.76,17.66,31,25.94,50.18,25.94c15.4,0,29.8-5.2,40.4-14.5 c11.5-10.2,17.6-24.5,17.6-41.4C121.6,50.16,118.13,38.84,111.49,29.67z" fill="#EB8F00"/>
  </g>
  <g id="facial_expressions">
    <g id="winking-face">
      <path id="mouth" d="M64.25,95.44c-12.74,0-21.82-6.61-24.55-10.77c-1.03-1.33-1.25-3.13-0.56-4.67 c0.53-0.97,1.56-1.57,2.67-1.56c0.41,0,0.82,0.07,1.21,0.2c6.9,2.08,14.07,3.11,21.28,3.07c7.17,0.04,14.31-1,21.18-3.07 c0.39-0.13,0.8-0.19,1.21-0.2c1.11-0.01,2.14,0.59,2.67,1.56c0.69,1.54,0.47,3.34-0.56,4.67C86.07,88.83,77,95.44,64.25,95.44z" fill="#422B0D"/>
      <g id="eyes">
        <g id="peepers">
          <path d="M97.51,62l-0.2-0.28c-0.18-0.26-0.37-0.51-0.58-0.75c-0.72-0.81-1.53-1.54-2.42-2.16 c-1.2-0.84-2.5-1.53-3.87-2.05c-0.75-0.29-1.52-0.54-2.3-0.74c-0.39-0.1-0.82-0.19-1.26-0.28l-0.6-0.11l0.59-0.31l1.75-0.92 c1.13-0.58,2.2-1.08,3.1-1.49s1.64-0.7,2.14-0.89l0.76-0.27l0.22-0.09c1.41-0.58,2.07-2.2,1.49-3.61 c-0.4-0.96-1.3-1.61-2.33-1.69c-0.41-0.02-0.83-0.02-1.24,0c-1.01,0.09-2.02,0.27-3,0.52c-1.34,0.34-2.65,0.77-3.93,1.29 c-0.68,0.3-1.4,0.58-2.09,0.94s-1.44,0.74-2.06,1.07s-1.37,0.82-2,1.25s-1.27,0.88-1.87,1.32c-1.11,0.82-2.16,1.72-3.13,2.7 c-0.73,0.72-1.39,1.5-2,2.33c-0.18,0.24-0.35,0.5-0.5,0.76c-0.08,0.16-0.13,0.24-0.13,0.24c-0.37,0.9-0.4,1.9-0.08,2.82 c0.56,1.41,2.16,2.1,3.57,1.54c0.01,0,0.02-0.01,0.03-0.01l0.24-0.09L76,63l0.24-0.06c0.17,0,0.48-0.12,0.8-0.19 s0.71-0.14,1.13-0.21c0.99-0.14,2-0.22,3-0.22c1.18,0,2.37,0.08,3.54,0.25c0.21,0,0.74,0.1,1,0.15s0.54,0.09,0.84,0.16 c0.58,0.14,1.15,0.26,1.69,0.42c0.96,0.27,1.9,0.6,2.82,1c0.6,0.28,1.19,0.59,1.76,0.94c0.4,0.24,0.6,0.39,0.6,0.39l0.28,0.21 c1.2,0.91,2.92,0.67,3.82-0.54C98.26,64.32,98.25,62.97,97.51,62z" fill="#422B0D"/>
          <path d="M44.67,46.94L44.67,46.94c-4.19,0-8,3.54-8,9.42s3.81,9.41,8,9.41l0,0c4.19,0,8-3.54,8-9.41 S48.86,46.94,44.67,46.94z" fill="#422B0D"/>
        </g>
        <path id="eyebrows" d="M29.84,44.8c-0.87,0.01-1.68-0.41-2.19-1.11c-0.48-0.72-0.57-1.64-0.23-2.44 c2.04-5.12,5.98-9.26,11-11.54c1.85-0.86,3.82-1.44,5.85-1.71c0.13-0.01,0.26-0.01,0.39,0c1.26-0.05,2.35,0.86,2.53,2.11 c0.18,1.33-0.61,2.59-1.89,3l-0.37-0.7l0.25,0.74c-5.37,1.88-9.95,5.52-13,10.32c-0.48,0.82-1.36,1.32-2.31,1.32L29.84,44.8z" fill="#422B0D"/>
      </g>
      <g id="peepers-2">
        <path d="M44.28,50.87L44.28,50.87c-1.42-0.68-3.13-0.08-3.82,1.34c-0.53,1.11-0.29,2.44,0.6,3.3l0,0 c1.42,0.68,3.13,0.08,3.82-1.34C45.41,53.06,45.17,51.73,44.28,50.87z" fill="#896024"/>
      </g>
    </g>
  </g>
</svg>

<svg viewBox="0 0 128 128" xmlns="http://www.w3.org/2000/svg">
  <defs>
    <radialGradient id="face_1_" cx="63.6" cy="62.9" gradientUnits="userSpaceOnUse" r="56.9597">
      <stop offset="0.5" stop-color="#FDE030"/>
      <stop offset="0.92" stop-color="#F7C02B"/>
      <stop offset="1" stop-color="#F4A223"/>
    </radialGradient>
  </defs>
  <path id="face" d="M63.6,118.8 C35.7,118.8 5.6,101.3 5.6,62.9 C5.6,24.5 35.7,7 63.6,7 C79.1,7 93.4,12.1 104,21.4 C115.5,31.6 121.6,46 121.6,62.9 C121.6,79.8 115.5,94.1 104,104.3 C93.4,113.6 79,118.8 63.6,118.8 Z" fill="url(#face_1_)"/>
  <path d="M111.49,29.67 C116.82,38.27 119.6,48.51 119.6,59.9 C119.6,76.8 113.5,91.1 102,101.3 C91.4,110.6 77,115.8 61.6,115.8 C43.54,115.8 24.6,108.45 13.42,92.86 C24.18,110.52 44.42,118.8 63.6,118.8 C79,118.8 93.4,113.6 104,104.3 C115.5,94.1 121.6,79.8 121.6,62.9 C121.6,50.16 118.13,38.84 111.49,29.67 Z" fill="#EB8F00"/>
  <path id="mouth" d="M64.25,95.44 C51.51,95.44 42.43,88.83 39.7,84.67 C38.67,83.34 38.45,81.54 39.14,80 C39.67,79.03 40.7,78.43 41.81,78.44 C42.22,78.44 42.63,78.51 43.02,78.64 C49.92,80.72 57.09,81.75 64.3,81.71 C71.47,81.75 78.61,80.71 85.48,78.64 C85.87,78.51 86.28,78.45 86.69,78.44 C87.8,78.43 88.83,79.03 89.36,80 C90.05,81.54 89.83,83.34 88.8,84.67 C86.07,88.83 77,95.44 64.25,95.44 Z" fill="#422B0D"/>
  <path d="M97.51,62 L97.31,61.72 C97.13,61.46 96.94,61.21 96.73,60.97 C96.01,60.16 95.2,59.43 94.31,58.81 C93.11,57.97 91.81,57.28 90.44,56.76 C89.69,56.47 88.92,56.22 88.14,56.02 C87.75,55.92 87.32,55.83 86.88,55.74 L86.28,55.63 L86.87,55.32 L88.62,54.4 C89.75,53.82 90.82,53.32 91.72,52.91 C92.62,52.5 93.36,52.21 93.86,52.02 L94.62,51.75 L94.84,51.66 C96.25,51.08 96.91,49.46 96.33,48.05 C95.93,47.09 95.03,46.44 94,46.36 C93.59,46.34 93.17,46.34 92.76,46.36 C91.75,46.45 90.74,46.63 89.76,46.88 C88.42,47.22 87.11,47.65 85.83,48.17 C85.15,48.47 84.43,48.75 83.74,49.11 C83.05,49.47 82.3,49.85 81.68,50.18 C81.06,50.51 80.31,51 79.68,51.43 C79.05,51.86 78.41,52.31 77.81,52.75 C76.7,53.57 75.65,54.47 74.68,55.45 C73.95,56.17 73.29,56.95 72.68,57.78 C72.5,58.02 72.33,58.28 72.18,58.54 C72.1,58.7 72.05,58.78 72.05,58.78 C71.68,59.68 71.65,60.68 71.97,61.6 C72.53,63.01 74.13,63.7 75.54,63.14 C75.55,63.14 75.56,63.13 75.57,63.13 L75.81,63.04 L76,63 L76.24,62.94 C76.41,62.94 76.72,62.82 77.04,62.75 C77.36,62.68 77.75,62.61 78.17,62.54 C79.16,62.4 80.17,62.32 81.17,62.32 C82.35,62.32 83.54,62.4 84.71,62.57 C84.92,62.57 85.45,62.67 85.71,62.72 C85.97,62.77 86.25,62.81 86.55,62.88 C87.13,63.02 87.7,63.14 88.24,63.3 C89.2,63.57 90.14,63.9 91.06,64.3 C91.66,64.58 92.25,64.89 92.82,65.24 C93.22,65.48 93.42,65.63 93.42,65.63 L93.7,65.84 C94.9,66.75 96.62,66.51 97.52,65.3 C98.26,64.32 98.25,62.97 97.51,62 Z" fill="#422B0D"/>
  <path d="M44.67,46.94 L44.67,46.94 C40.48,46.94 36.67,50.48 36.67,56.36 C36.67,62.24 40.48,65.77 44.67,65.77 L44.67,65.77 C48.86,65.77 52.67,62.23 52.67,56.36 C52.67,50.49 48.86,46.94 44.67,46.94 Z" fill="#422B0D"/>
  <path id="eyebrows" d="M29.84,44.8 C28.97,44.81 28.16,44.39 27.65,43.69 C27.17,42.97 27.08,42.05 27.42,41.25 C29.46,36.13 33.4,31.99 38.42,29.71 C40.27,28.85 42.24,28.27 44.27,28 C44.4,27.99 44.53,27.99 44.66,28 C45.92,27.95 47.01,28.86 47.19,30.11 C47.37,31.44 46.58,32.7 45.3,33.11 L44.93,32.41 L45.18,33.15 C39.81,35.03 35.23,38.67 32.18,43.47 C31.7,44.29 30.82,44.79 29.87,44.79 L29.84,44.8 Z" fill="#422B0D"/>
  <path d="M44.28,50.87 L44.28,50.87 C42.86,50.19 41.15,50.79 40.46,52.21 C39.93,53.32 40.17,54.65 41.06,55.51 L41.06,55.51 C42.48,56.19 44.19,55.59 44.88,54.17 C45.41,53.06 45.17,51.73 44.28,50.87 Z" fill="#896024"/>
</svg>
